local/frankbarton2/home/ViewerProcess/SI_ContrastCurve_1.cube
LUT_1D_SIZE 1024		
DOMAIN_MIN	0.0 0.0 0.0	
DOMAIN_MAX	1.0 1.0 1.0	
0	0	0
-0.000154768387616813	-0.000154768387616813	-0.000154768387616813
-0.000298280023960899	-0.000298280023960899	-0.000298280023960899
-0.000430576247401759	-0.000430576247401759	-0.000430576247401759
-0.000551698338408602	-0.000551698338408602	-0.000551698338408602
-0.000661687519550342	-0.000661687519550342	-0.000661687519550342
-0.000760584955495601	-0.000760584955495601	-0.000760584955495601
-0.000848431753012708	-0.000848431753012708	-0.000848431753012708
-0.000925268960969697	-0.000925268960969697	-0.000925268960969697
-0.000991137570334311	-0.000991137570334311	-0.000991137570334311
-0.001046078514174	-0.001046078514174	-0.001046078514174
-0.00109013266765591	-0.00109013266765591	-0.00109013266765591
-0.00112334084804692	-0.00112334084804692	-0.00112334084804692
-0.00114574381471359	-0.00114574381471359	-0.00114574381471359
-0.00115738226912219	-0.00115738226912219	-0.00115738226912219
-0.00115829685483871	-0.00115829685483871	-0.00115829685483871
-0.00114852815752884	-0.00114852815752884	-0.00114852815752884
-0.00112811670495797	-0.00112811670495797	-0.00112811670495797
-0.0010971029669912	-0.0010971029669912	-0.0010971029669912
-0.00105552735559335	-0.00105552735559335	-0.00105552735559335
-0.00100343022482893	-0.00100343022482893	-0.00100343022482893
-0.00094085187086217	-0.00094085187086217	-0.00094085187086217
-0.000867832531956989	-0.000867832531956989	-0.000867832531956989
-0.000784412388477028	-0.000784412388477028	-0.000784412388477028
-0.00069063156288563	-0.00069063156288563	-0.00069063156288563
-0.000586530119745845	-0.000586530119745845	-0.000586530119745845
-0.00047214806572043	-0.00047214806572043	-0.00047214806572043
-0.000347525349571847	-0.000347525349571847	-0.000347525349571847
-0.000212701862162268	-0.000212701862162268	-0.000212701862162268
-0.0000677174364535676	-0.0000677174364535676	-0.0000677174364535676
0.0000873881524926691	0.0000873881524926691	0.0000873881524926691
0.000252575187515152	0.000252575187515152	0.000252575187515152
0.000427804009352884	0.000427804009352884	0.000427804009352884
0.000613035016645161	0.000613035016645161	0.000613035016645161
0.000808228665931574	0.000808228665931574	0.000808228665931574
0.001013345471652	0.001013345471652	0.001013345471652
0.00122834600614663	0.00122834600614663	0.00122834600614663
0.00145319089965591	0.00145319089965591	0.00145319089965591
0.00168784084032063	0.00168784084032063	0.00168784084032063
0.00193225657418182	0.00193225657418182	0.00193225657418182
0.00218639890518084	0.00218639890518084	0.00218639890518084
0.00245022869515934	0.00245022869515934	0.00245022869515934
0.00272370686385924	0.00272370686385924	0.00272370686385924
0.00300679438892277	0.00300679438892277	0.00300679438892277
0.00329945230589247	0.00329945230589247	0.00329945230589247
0.00360164170821114	0.00360164170821114	0.00360164170821114
0.0039133237472219	0.0039133237472219	0.0039133237472219
0.00423445963216813	0.00423445963216813	0.00423445963216813
0.00456501063019355	0.00456501063019355	0.00456501063019355
0.00490493806634213	0.00490493806634213	0.00490493806634213
0.00525420332355816	0.00525420332355816	0.00525420332355816
0.00561276784268622	0.00561276784268622	0.00561276784268622
0.00598059312247116	0.00598059312247116	0.00598059312247116
0.00635764071955816	0.00635764071955816	0.00635764071955816
0.00674387224849267	0.00674387224849267	0.00674387224849267
0.00713924938172043	0.00713924938172043	0.00713924938172043
0.00754373384958749	0.00754373384958749	0.00754373384958749
0.00795728744034018	0.00795728744034018	0.00795728744034018
0.00837987200012512	0.00837987200012512	0.00837987200012512
0.00881144943298925	0.00881144943298925	0.00881144943298925
0.00925198170087977	0.00925198170087977	0.00925198170087977
0.00970143082364419	0.00970143082364419	0.00970143082364419
0.0101597588790303	0.0101597588790303	0.0101597588790303
0.0106269280026862	0.0106269280026862	0.0106269280026862
0.0111029003881603	0.0111029003881603	0.0111029003881603
0.0115876382869013	0.0115876382869013	0.0115876382869013
0.0120811040082581	0.0120811040082581	0.0120811040082581
0.01258325991948	0.01258325991948	0.01258325991948
0.0130940684457165	0.0130940684457165	0.0130940684457165
0.0136134920700176	0.0136134920700176	0.0136134920700176
0.0141414933333333	0.0141414933333333	0.0141414933333333
0.0146780348345142	0.0146780348345142	0.0146780348345142
0.0152230792303109	0.0152230792303109	0.0152230792303109
0.0157765892353744	0.0157765892353744	0.0157765892353744
0.0163385276222561	0.0163385276222561	0.0163385276222561
0.0169088572214076	0.0169088572214076	0.0169088572214076
0.0174875409211808	0.0174875409211808	0.0174875409211808
0.018074541667828	0.018074541667828	0.018074541667828
0.0186698224655015	0.0186698224655015	0.0186698224655015
0.0192733463762542	0.0192733463762542	0.0192733463762542
0.0198850765200391	0.0198850765200391	0.0198850765200391
0.0205049760747097	0.0205049760747097	0.0205049760747097
0.0211330082760195	0.0211330082760195	0.0211330082760195
0.0217691364176227	0.0217691364176227	0.0217691364176227
0.0224133238510733	0.0224133238510733	0.0224133238510733
0.023065533985826	0.023065533985826	0.023065533985826
0.0237257302892356	0.0237257302892356	0.0237257302892356
0.0243938762865572	0.0243938762865572	0.0243938762865572
0.0250699355609462	0.0250699355609462	0.0250699355609462
0.0257538717534585	0.0257538717534585	0.0257538717534585
0.0264456485630499	0.0264456485630499	0.0264456485630499
0.0271452297465767	0.0271452297465767	0.0271452297465767
0.0278525791187957	0.0278525791187957	0.0278525791187957
0.0285676605523636	0.0285676605523636	0.0285676605523636
0.0292904379778377	0.0292904379778377	0.0292904379778377
0.0300208753836755	0.0300208753836755	0.0300208753836755
0.0307589368162346	0.0307589368162346	0.0307589368162346
0.0315045863797732	0.0315045863797732	0.0315045863797732
0.0322577882364497	0.0322577882364497	0.0322577882364497
0.0330185066063226	0.0330185066063226	0.0330185066063226
0.0337867057673509	0.0337867057673509	0.0337867057673509
0.0345623500553939	0.0345623500553939	0.0345623500553939
0.0353454038642111	0.0353454038642111	0.0353454038642111
0.0361358316454624	0.0361358316454624	0.0361358316454624
0.0369335979087077	0.0369335979087077	0.0369335979087077
0.0377386672214076	0.0377386672214076	0.0377386672214076
0.0385510042089228	0.0385510042089228	0.0385510042089228
0.0393705735545142	0.0393705735545142	0.0393705735545142
0.0401973399993431	0.0401973399993431	0.0401973399993431
0.0410312683424712	0.0410312683424712	0.0410312683424712
0.0418723234408602	0.0418723234408602	0.0418723234408602
0.0427204702093724	0.0427204702093724	0.0427204702093724
0.0435756736207703	0.0435756736207703	0.0435756736207703
0.0444378987057165	0.0444378987057165	0.0444378987057165
0.0453071105527742	0.0453071105527742	0.0453071105527742
0.0461832743084067	0.0461832743084067	0.0461832743084067
0.0470663551769775	0.0470663551769775	0.0470663551769775
0.0479563184207507	0.0479563184207507	0.0479563184207507
0.0488531293598905	0.0488531293598905	0.0488531293598905
0.0497567533724614	0.0497567533724614	0.0497567533724614
0.0506671558944282	0.0506671558944282	0.0506671558944282
0.0515843024196559	0.0515843024196559	0.0515843024196559
0.0525081584999101	0.0525081584999101	0.0525081584999101
0.0534386897448563	0.0534386897448563	0.0534386897448563
0.0543758618220606	0.0543758618220606	0.0543758618220606
0.0553196404569892	0.0553196404569892	0.0553196404569892
0.0562699914330088	0.0562699914330088	0.0562699914330088
0.0572268805913861	0.0572268805913861	0.0572268805913861
0.0581902738312884	0.0581902738312884	0.0581902738312884
0.059160137109783	0.059160137109783	0.059160137109783
0.0601364364418378	0.0601364364418378	0.0601364364418378
0.0611191379003206	0.0611191379003206	0.0611191379003206
0.062108207616	0.062108207616	0.062108207616
0.0631036117775445	0.0631036117775445	0.0631036117775445
0.064105316631523	0.064105316631523	0.064105316631523
0.0651132884824047	0.0651132884824047	0.0651132884824047
0.0661274936925592	0.0661274936925592	0.0661274936925592
0.0671478986822561	0.0671478986822561	0.0671478986822561
0.0681744699296657	0.0681744699296657	0.0681744699296657
0.0692071739708583	0.0692071739708583	0.0692071739708583
0.0702459773998045	0.0702459773998045	0.0702459773998045
0.0712908468683754	0.0712908468683754	0.0712908468683754
0.0723417490863422	0.0723417490863422	0.0723417490863422
0.0733986508213764	0.0733986508213764	0.0733986508213764
0.0744615188990499	0.0744615188990499	0.0744615188990499
0.0755303202028348	0.0755303202028348	0.0755303202028348
0.0766050216741036	0.0766050216741036	0.0766050216741036
0.077685590312129	0.077685590312129	0.077685590312129
0.0787719931740841	0.0787719931740841	0.0787719931740841
0.079864197375042	0.079864197375042	0.079864197375042
0.0809621700879765	0.0809621700879765	0.0809621700879765
0.0820658785437615	0.0820658785437615	0.0820658785437615
0.0831752900311711	0.0831752900311711	0.0831752900311711
0.0842903718968798	0.0842903718968798	0.0842903718968798
0.0854110915454624	0.0854110915454624	0.0854110915454624
0.0865374164393939	0.0865374164393939	0.0865374164393939
0.0876693140990498	0.0876693140990498	0.0876693140990498
0.0888067521027058	0.0888067521027058	0.0888067521027058
0.0899496980865376	0.0899496980865376	0.0899496980865376
0.0910981197446217	0.0910981197446217	0.0910981197446217
0.0922519848289345	0.0922519848289345	0.0922519848289345
0.0934112611493529	0.0934112611493529	0.0934112611493529
0.094575916573654	0.094575916573654	0.094575916573654
0.0957459190275152	0.0957459190275152	0.0957459190275152
0.0969212364945142	0.0969212364945142	0.0969212364945142
0.0981018370161291	0.0981018370161291	0.0981018370161291
0.099287688691738	0.099287688691738	0.099287688691738
0.10047875967862	0.10047875967862	0.10047875967862
0.101675018191953	0.101675018191953	0.101675018191953
0.102876432504817	0.102876432504817	0.102876432504817
0.104082970948192	0.104082970948192	0.104082970948192
0.105294601910956	0.105294601910956	0.105294601910956
0.106511293839891	0.106511293839891	0.106511293839891
0.107733015239675	0.107733015239675	0.107733015239675
0.108959734672892	0.108959734672892	0.108959734672892
0.11019142076002	0.11019142076002	0.11019142076002
0.111428042179441	0.111428042179441	0.111428042179441
0.112669567667437	0.112669567667437	0.112669567667437
0.11391596601819	0.11391596601819	0.11391596601819
0.115167206083781	0.115167206083781	0.115167206083781
0.116423256774194	0.116423256774194	0.116423256774194
0.11768408705731	0.11768408705731	0.11768408705731
0.118949665958913	0.118949665958913	0.118949665958913
0.120219962562686	0.120219962562686	0.120219962562686
0.121494946010213	0.121494946010213	0.121494946010213
0.122774585500978	0.122774585500978	0.122774585500978
0.124058850292364	0.124058850292364	0.124058850292364
0.125347709699656	0.125347709699656	0.125347709699656
0.126641133096039	0.126641133096039	0.126641133096039
0.127939089912598	0.127939089912598	0.127939089912598
0.129241549638319	0.129241549638319	0.129241549638319
0.130548481820086	0.130548481820086	0.130548481820086
0.131859856062686	0.131859856062686	0.131859856062686
0.133175642028806	0.133175642028806	0.133175642028806
0.13449580943903	0.13449580943903	0.13449580943903
0.135820328071847	0.135820328071847	0.135820328071847
0.137149167763644	0.137149167763644	0.137149167763644
0.138482298408708	0.138482298408708	0.138482298408708
0.139819689959226	0.139819689959226	0.139819689959226
0.141161312425286	0.141161312425286	0.141161312425286
0.142507135874878	0.142507135874878	0.142507135874878
0.143857130433889	0.143857130433889	0.143857130433889
0.145211266286108	0.145211266286108	0.145211266286108
0.146569513673224	0.146569513673224	0.146569513673224
0.147931842894827	0.147931842894827	0.147931842894827
0.149298224308407	0.149298224308407	0.149298224308407
0.150668628329353	0.150668628329353	0.150668628329353
0.152043025430956	0.152043025430956	0.152043025430956
0.153421386144407	0.153421386144407	0.153421386144407
0.154803681058796	0.154803681058796	0.154803681058796
0.156189880821114	0.156189880821114	0.156189880821114
0.157579956136254	0.157579956136254	0.157579956136254
0.158973877767007	0.158973877767007	0.158973877767007
0.160371616534065	0.160371616534065	0.160371616534065
0.16177314331602	0.16177314331602	0.16177314331602
0.163178429049365	0.163178429049365	0.163178429049365
0.164587444728493	0.164587444728493	0.164587444728493
0.166000161405697	0.166000161405697	0.166000161405697
0.167416550191171	0.167416550191171	0.167416550191171
0.168836582253009	0.168836582253009	0.168836582253009
0.170260228817204	0.170260228817204	0.170260228817204
0.171687461167652	0.171687461167652	0.171687461167652
0.173118250646147	0.173118250646147	0.173118250646147
0.174552568652383	0.174552568652383	0.174552568652383
0.175990386643957	0.175990386643957	0.175990386643957
0.177431676136364	0.177431676136364	0.177431676136364
0.178876408702999	0.178876408702999	0.178876408702999
0.180324555975159	0.180324555975159	0.180324555975159
0.181776089642041	0.181776089642041	0.181776089642041
0.183230981450741	0.183230981450741	0.183230981450741
0.184689203206256	0.184689203206256	0.184689203206256
0.186150726771484	0.186150726771484	0.186150726771484
0.187615524067222	0.187615524067222	0.187615524067222
0.189083567072168	0.189083567072168	0.189083567072168
0.190554827822921	0.190554827822921	0.190554827822921
0.192029278413979	0.192029278413979	0.192029278413979
0.19350689099774	0.19350689099774	0.19350689099774
0.194987637784504	0.194987637784504	0.194987637784504
0.196471491042471	0.196471491042471	0.196471491042471
0.19795842309774	0.19795842309774	0.19795842309774
0.199448406334311	0.199448406334311	0.199448406334311
0.200941413194084	0.200941413194084	0.200941413194084
0.20243741617686	0.20243741617686	0.20243741617686
0.20393638784034	0.20393638784034	0.20393638784034
0.205438300800125	0.205438300800125	0.205438300800125
0.206943127729717	0.206943127729717	0.206943127729717
0.208450841360516	0.208450841360516	0.208450841360516
0.209961414481826	0.209961414481826	0.209961414481826
0.211474819940848	0.211474819940848	0.211474819940848
0.212991030642686	0.212991030642686	0.212991030642686
0.214510019550342	0.214510019550342	0.214510019550342
0.216031759684719	0.216031759684719	0.216031759684719
0.217556224124622	0.217556224124622	0.217556224124622
0.219083386006753	0.219083386006753	0.219083386006753
0.220613218525716	0.220613218525716	0.220613218525716
0.222145694934018	0.222145694934018	0.222145694934018
0.223680788542061	0.223680788542061	0.223680788542061
0.225218472718151	0.225218472718151	0.225218472718151
0.226758720888493	0.226758720888493	0.226758720888493
0.228301506537193	0.228301506537193	0.228301506537193
0.229846803206256	0.229846803206256	0.229846803206256
0.231394584495589	0.231394584495589	0.231394584495589
0.232944824062999	0.232944824062999	0.232944824062999
0.234497495624192	0.234497495624192	0.234497495624192
0.236052572952774	0.236052572952774	0.236052572952774
0.237610029880254	0.237610029880254	0.237610029880254
0.239169840296039	0.239169840296039	0.239169840296039
0.240731978147437	0.240731978147437	0.240731978147437
0.242296417439656	0.242296417439656	0.242296417439656
0.243863132235804	0.243863132235804	0.243863132235804
0.245432096656891	0.245432096656891	0.245432096656891
0.247003284881826	0.247003284881826	0.247003284881826
0.248576671147417	0.248576671147417	0.248576671147417
0.250152229748375	0.250152229748375	0.250152229748375
0.25172993503731	0.25172993503731	0.25172993503731
0.253309761424731	0.253309761424731	0.253309761424731
0.25489168337905	0.25489168337905	0.25489168337905
0.256475675426577	0.256475675426577	0.256475675426577
0.258061712151523	0.258061712151523	0.258061712151523
0.259649768196	0.259649768196	0.259649768196
0.26123981826002	0.26123981826002	0.26123981826002
0.262831837101494	0.262831837101494	0.262831837101494
0.264425799536235	0.264425799536235	0.264425799536235
0.266021680437955	0.266021680437955	0.266021680437955
0.267619454738268	0.267619454738268	0.267619454738268
0.269219097426686	0.269219097426686	0.269219097426686
0.270820583550624	0.270820583550624	0.270820583550624
0.272423888215394	0.272423888215394	0.272423888215394
0.274028986584211	0.274028986584211	0.274028986584211
0.27563585387819	0.27563585387819	0.27563585387819
0.277244465376344	0.277244465376344	0.277244465376344
0.278854796415589	0.278854796415589	0.278854796415589
0.280466822390741	0.280466822390741	0.280466822390741
0.282080518754514	0.282080518754514	0.282080518754514
0.283695861017525	0.283695861017525	0.283695861017525
0.285312824748289	0.285312824748289	0.285312824748289
0.286931385573224	0.286931385573224	0.286931385573224
0.288551519176645	0.288551519176645	0.288551519176645
0.29017320130077	0.29017320130077	0.29017320130077
0.291796407745716	0.291796407745716	0.291796407745716
0.293421114369501	0.293421114369501	0.293421114369501
0.295047297088043	0.295047297088043	0.295047297088043
0.296674931875159	0.296674931875159	0.296674931875159
0.298303994762569	0.298303994762569	0.298303994762569
0.299934461839891	0.299934461839891	0.299934461839891
0.301566309254643	0.301566309254643	0.301566309254643
0.303199513212246	0.303199513212246	0.303199513212246
0.30483404997602	0.30483404997602	0.30483404997602
0.306469895867183	0.306469895867183	0.306469895867183
0.308107027264856	0.308107027264856	0.308107027264856
0.309745420606061	0.309745420606061	0.309745420606061
0.311385052385716	0.311385052385716	0.311385052385716
0.313025899156645	0.313025899156645	0.313025899156645
0.314667937529568	0.314667937529568	0.314667937529568
0.316311144173107	0.316311144173107	0.316311144173107
0.317955495813783	0.317955495813783	0.317955495813783
0.31960096923602	0.31960096923602	0.31960096923602
0.321247541282139	0.321247541282139	0.321247541282139
0.322895188852364	0.322895188852364	0.322895188852364
0.324543888904817	0.324543888904817	0.324543888904817
0.326193618455523	0.326193618455523	0.326193618455523
0.327844354578405	0.327844354578405	0.327844354578405
0.329496074405286	0.329496074405286	0.329496074405286
0.331148755125892	0.331148755125892	0.331148755125892
0.332802373987847	0.332802373987847	0.332802373987847
0.334456908296676	0.334456908296676	0.334456908296676
0.336112335415805	0.336112335415805	0.336112335415805
0.337768632766557	0.337768632766557	0.337768632766557
0.33942577782816	0.33942577782816	0.33942577782816
0.34108374813774	0.34108374813774	0.34108374813774
0.342742521290323	0.342742521290323	0.342742521290323
0.344402074938835	0.344402074938835	0.344402074938835
0.346062386794104	0.346062386794104	0.346062386794104
0.347723434624856	0.347723434624856	0.347723434624856
0.34938519625772	0.34938519625772	0.34938519625772
0.351047649577224	0.351047649577224	0.351047649577224
0.352710772525795	0.352710772525795	0.352710772525795
0.354374543103761	0.354374543103761	0.354374543103761
0.356038939369353	0.356038939369353	0.356038939369353
0.357703939438698	0.357703939438698	0.357703939438698
0.359369521485826	0.359369521485826	0.359369521485826
0.361035663742667	0.361035663742667	0.361035663742667
0.36270234449905	0.36270234449905	0.36270234449905
0.364369542102706	0.364369542102706	0.364369542102706
0.366037234959265	0.366037234959265	0.366037234959265
0.367705401532258	0.367705401532258	0.367705401532258
0.369374020343116	0.369374020343116	0.369374020343116
0.371043069971171	0.371043069971171	0.371043069971171
0.372712529053654	0.372712529053654	0.372712529053654
0.374382376285697	0.374382376285697	0.374382376285697
0.376052590420332	0.376052590420332	0.376052590420332
0.377723150268493	0.377723150268493	0.377723150268493
0.379394034699011	0.379394034699011	0.379394034699011
0.38106522263862	0.38106522263862	0.38106522263862
0.382736693071953	0.382736693071953	0.382736693071953
0.384408425041545	0.384408425041545	0.384408425041545
0.386080397647828	0.386080397647828	0.386080397647828
0.387752590049138	0.387752590049138	0.387752590049138
0.389424981461709	0.389424981461709	0.389424981461709
0.391097551159676	0.391097551159676	0.391097551159676
0.392770278475073	0.392770278475073	0.392770278475073
0.394443142797838	0.394443142797838	0.394443142797838
0.396116123575804	0.396116123575804	0.396116123575804
0.39778920031471	0.39778920031471	0.39778920031471
0.39946235257819	0.39946235257819	0.39946235257819
0.401135559987781	0.401135559987781	0.401135559987781
0.402808802222921	0.402808802222921	0.402808802222921
0.404482059020946	0.404482059020946	0.404482059020946
0.406155310177095	0.406155310177095	0.406155310177095
0.407828535544504	0.407828535544504	0.407828535544504
0.409501715034213	0.409501715034213	0.409501715034213
0.411174828615159	0.411174828615159	0.411174828615159
0.412847856314182	0.412847856314182	0.412847856314182
0.41452077821602	0.41452077821602	0.41452077821602
0.416193574463312	0.416193574463312	0.416193574463312
0.417866225256598	0.417866225256598	0.417866225256598
0.419538710854319	0.419538710854319	0.419538710854319
0.421211011572813	0.421211011572813	0.421211011572813
0.422883107786323	0.422883107786323	0.422883107786323
0.424554979926987	0.424554979926987	0.424554979926987
0.426226608484849	0.426226608484849	0.426226608484849
0.427897974007848	0.427897974007848	0.427897974007848
0.429569057101826	0.429569057101826	0.429569057101826
0.431239838430526	0.431239838430526	0.431239838430526
0.432910298715589	0.432910298715589	0.432910298715589
0.434580418736559	0.434580418736559	0.434580418736559
0.436250179330878	0.436250179330878	0.436250179330878
0.437919561393889	0.437919561393889	0.437919561393889
0.439588545878835	0.439588545878835	0.439588545878835
0.44125711379686	0.44125711379686	0.44125711379686
0.442925246217009	0.442925246217009	0.442925246217009
0.444592924266225	0.444592924266225	0.444592924266225
0.446260129129353	0.446260129129353	0.446260129129353
0.447926842049138	0.447926842049138	0.447926842049138
0.449593044326225	0.449593044326225	0.449593044326225
0.451258717319159	0.451258717319159	0.451258717319159
0.452923842444387	0.452923842444387	0.452923842444387
0.454588401176254	0.454588401176254	0.454588401176254
0.456252375047007	0.456252375047007	0.456252375047007
0.457915745646792	0.457915745646792	0.457915745646792
0.459578494623656	0.459578494623656	0.459578494623656
0.461240603683547	0.461240603683547	0.461240603683547
0.462902054590311	0.462902054590311	0.462902054590311
0.464562829165697	0.464562829165697	0.464562829165697
0.466222909289353	0.466222909289353	0.466222909289353
0.467882276898827	0.467882276898827	0.467882276898827
0.469540913989568	0.469540913989568	0.469540913989568
0.471198802614925	0.471198802614925	0.471198802614925
0.472855924886147	0.472855924886147	0.472855924886147
0.474512262972383	0.474512262972383	0.474512262972383
0.476167799100684	0.476167799100684	0.476167799100684
0.477822515556	0.477822515556	0.477822515556
0.479476394681181	0.479476394681181	0.479476394681181
0.481129418876978	0.481129418876978	0.481129418876978
0.482781570602041	0.482781570602041	0.482781570602041
0.484432832372923	0.484432832372923	0.484432832372923
0.486083186764074	0.486083186764074	0.486083186764074
0.487732616407847	0.487732616407847	0.487732616407847
0.489381103994495	0.489381103994495	0.489381103994495
0.491028632272168	0.491028632272168	0.491028632272168
0.492675184046921	0.492675184046921	0.492675184046921
0.494320742182706	0.494320742182706	0.494320742182706
0.495965289601376	0.495965289601376	0.495965289601376
